app/assets/images/icons/active/towel.svg

<?xml version="1.0" encoding="UTF-8" standalone="no"?>
<svg width="32px" height="232px" viewBox="0 0 32 232" version="1.1" xmlns="http://www.w3.org/2000/svg" xmlns:xlink="http://www.w3.org/1999/xlink" xmlns:sketch="http://www.bohemiancoding.com/sketch/ns">
    <title>towel</title>
    <description>Created with Sketch (http://www.bohemiancoding.com/sketch)</description>
    <defs></defs>
    <g id="Brand" stroke="none" stroke-width="1" fill="none" fill-rule="evenodd" sketch:type="MSPage">
        <path d="M25.6550751,150.867272 L17.6221503,147.34287 C16.8825434,147.018472 15.6668208,147.006747 14.9211098,147.317465 L6.35509827,150.8917 C5.61040462,151.203395 5,150.818417 5,150.037714 L5,125.420635 C5,124.639931 5.66635838,123.99993 6.47921387,123.99993 L25.5197688,123.99993 C26.334659,123.99993 27,124.639931 27,125.420635 L27,150.037714 C27,150.818417 26.3946821,151.192647 25.6550751,150.867272 Z M25.6550751,150.867272" id="towel--lp-blue" fill="#206FAC" sketch:type="MSShapeGroup"></path>
        <path d="M25.6550751,110.867272 L17.6221503,107.34287 C16.8825434,107.018472 15.6668208,107.006747 14.9211098,107.317465 L6.35509827,110.8917 C5.61040462,111.203395 5,110.818417 5,110.037714 L5,85.420635 C5,84.6399314 5.66635838,83.9999304 6.47921387,83.9999304 L25.5197688,83.9999304 C26.334659,83.9999304 27,84.6399314 27,85.420635 L27,110.037714 C27,110.818417 26.3946821,111.192647 25.6550751,110.867272 Z M25.6550751,110.867272" id="towel--white" fill="#FFFFFF" sketch:type="MSShapeGroup"></path>
        <path d="M25.6550751,70.8672725 L17.6221503,67.3428697 C16.8825434,67.0184722 15.6668208,67.006747 14.9211098,67.3174651 L6.35509827,70.8917 C5.61040462,71.2033952 5,70.8184174 5,70.0377139 L5,45.420635 C5,44.6399314 5.66635838,43.9999304 6.47921387,43.9999304 L25.5197688,43.9999304 C26.334659,43.9999304 27,44.6399314 27,45.420635 L27,70.0377139 C27,70.8184174 26.3946821,71.1926471 25.6550751,70.8672725 Z M25.6550751,70.8672725" id="towel--body-grey" fill="#67737B" sketch:type="MSShapeGroup"></path>
        <path d="M25.6550751,30.8672725 L17.6221503,27.3428697 C16.8825434,27.0184722 15.6668208,27.006747 14.9211098,27.3174651 L6.35509827,30.8917 C5.61040462,31.2033952 5,30.8184174 5,30.0377139 L5,5.42063503 C5,4.63993145 5.66635838,3.99993039 6.47921387,3.99993039 L25.5197688,3.99993039 C26.334659,3.99993039 27,4.63993145 27,5.42063503 L27,30.0377139 C27,30.8184174 26.3946821,31.1926471 25.6550751,30.8672725 Z M25.6550751,30.8672725" id="towel--title-grey" fill="#3A434E" sketch:type="MSShapeGroup"></path>
    </g>
</svg>

<svg width="32" height="232" viewBox="0 0 32 232" xmlns="http://www.w3.org/2000/svg" xmlns:sketch="http://www.bohemiancoding.com/sketch/ns"><title>towel</title><g sketch:type="MSPage" fill="none"><path d="M25.655 150.867l-8.033-3.524c-.74-.324-1.955-.336-2.701-.025l-8.566 3.574c-.745.312-1.355-.073-1.355-.854v-24.617c0-.781.666-1.421 1.479-1.421h19.041c.815 0 1.48.64 1.48 1.421v24.617c0 .781-.605 1.155-1.345.83zm0 0" fill="#206FAC" sketch:type="MSShapeGroup"/><path d="M25.655 110.867l-8.033-3.524c-.74-.324-1.955-.336-2.701-.025l-8.566 3.574c-.745.312-1.355-.073-1.355-.854v-24.617c0-.781.666-1.421 1.479-1.421h19.041c.815 0 1.48.64 1.48 1.421v24.617c0 .781-.605 1.155-1.345.83zm0 0" fill="#fff" sketch:type="MSShapeGroup"/><path d="M25.655 70.867l-8.033-3.524c-.74-.324-1.955-.336-2.701-.025l-8.566 3.574c-.745.312-1.355-.073-1.355-.854v-24.617c0-.781.666-1.421 1.479-1.421h19.041c.815 0 1.48.64 1.48 1.421v24.617c0 .781-.605 1.155-1.345.83zm0 0" fill="#67737B" sketch:type="MSShapeGroup"/><path d="M25.655 30.867l-8.033-3.524c-.74-.324-1.955-.336-2.701-.025l-8.566 3.574c-.745.312-1.355-.073-1.355-.854v-24.617c0-.781.666-1.421 1.479-1.421h19.041c.815 0 1.48.64 1.48 1.421v24.617c0 .781-.605 1.155-1.345.83zm0 0" fill="#3A434E" sketch:type="MSShapeGroup"/></g></svg>
